!!!!SEGMENT: Ric1001e-Missa_O_genitrix-Agnus
!!!id: Ric1001e
!!!AGN: Mass; Agnus
!!!voices: 4
!!!OPR: Missa O genitrix
!!!COM: Jean Richafort
!!!OTL: Agnus
**kern	**kern	**kern	**kern
*part4	*part3	*part2	*part1
*staff4	*staff3	*staff2	*staff1
*I"Bassus	*I"Tenor	*I"Altus	*I"Superius
*I'B.	*I'T.	*I'A.	*I'S.
*clefF4	*clefGv2	*clefGv2	*clefG2
*k[b-]	*k[b-]	*k[b-]	*k[b-]
*F:	*F:	*F:	*F:
*M2/1	*M2/1	*M2/1	*M2/1
*met(C|)	*met(C|)	*met(C|)	*met(C|)
=1	=1	=1	=1
!!section: Agnus Dei I
!!!OMD: Agnus Dei I
1r	0r	1G	0g
1G	.	1G	.
=2	=2	=2	=2
1G	[0G	1.d	1g
[1d	.	.	1g
.	.	2c	.
=3	=3	=3	=3
2d]	0G]	2B-y	1.dd
2c	.	2A	.
2B-y	.	1G	.
2A	.	.	2cc
=4	=4	=4	=4
2G	1G	1d	2b-y
2F	.	.	2a
1E	1G	1e	1g
=5	=5	=5	=5
2.D	[0d	2.f	1.a
4E	.	4g	.
2F	.	2a	.
2G	.	[2b-y	2g
=6	=6	=6	=6
2.D	0d_	2b-]	2.f
.	.	1a	.
4E	.	.	4g
2F	.	.	2a
[2G	.	2g	[2b-y
=7	=7	=7	=7
2G]	0d]	2.a	2b-]
2F	.	.	1a
.	.	4g	.
1B-y	.	2f	.
.	.	2d	2g
=8	=8	=8	=8
2.A	2.c	2e	1.a
.	.	1f	.
4G	4B-y	.	.
4F	4A	.	.
4E	4G	.	.
2G	[2B-y	[2e	2g
=9	=9	=9	=9
2F	2B-]	2e]	2a
2D	1A	1d	2f
1E	.	.	1g
.	2G	2c#i	.
=10	=10	=10	=10
0D	1A	0d	1.f
.	2r	.	.
.	2d	.	8fL
.	.	.	8e
.	.	.	8f
.	.	.	8gJ
=11	=11	=11	=11
0r	2f	1r	1a
.	2f	.	.
.	2e	1g	[1b-y
.	2e	.	.
=12	=12	=12	=12
1G	2d	2.b-y	2b-]
.	2.G	.	8b-yL
.	.	.	8a
.	.	4a	8b-y
.	.	.	8ccJ
2.B-y	.	2g	1dd
.	4A	.	.
.	4B-y	2f	.
4A	4c	.	.
=13	=13	=13	=13
2G	4d	2g	2b-y
.	4e	.	.
2F	1f	2a	1dd
2G	.	2b-y	.
2A	2e	4a	[2cc
.	.	4g	.
=14	=14	=14	=14
2B-y	2d	1.f	2cc]
4A	4c	.	1b-y
4G	4B-y	.	.
1F	1c	.	.
.	.	8fL	2a
.	.	8e	.
.	.	8d	.
.	.	8cJ	.
=15	=15	=15	=15
2r	1B-y	1d	0b-y
2G	.	.	.
2G	2r	2r	.
2G	2B-y	2d	.
=16	=16	=16	=16
2F	2A	2d	2r
2E	2G	2c	2g
1D	2A	1d	2g
.	2B-y	.	2f
=17	=17	=17	=17
0r	2G	2B-y	1g
.	1g	2c	.
.	.	1A	1a
.	2f#i	.	.
=18	=18	=18	=18
2r	2g	4G	2.b-y
.	.	4A	.
2G	2G	4B-y	.
.	.	4c	4a
2G	2B-y	4d	4g
.	.	4c	4f
2G	2B-y	4d	2b-y
.	.	4e	.
=19	=19	=19	=19
2F	4c	2f	2a
.	4B-y	.	.
2E	4A	2c	1g
.	4G	.	.
1D	2A	1d	.
.	2A	.	2f#i
=20	=20	=20	=20
2r	1G	1d	0g
2G	.	.	.
2G	2r	2r	.
2G	2B-y	2d	.
=21	=21	=21	=21
2F	2A	2d	2r
2E	2G	2c	2g
1D	2A	1d	2g
.	2B-y	.	2f
=22	=22	=22	=22
0r	2G	2B-y	1g
.	1g	2c	.
.	.	1A	1a
.	2f#i	.	.
=23	=23	=23	=23
2r	2g	4G	2.b-y
.	.	4A	.
2G	2G	4B-y	.
.	.	4c	4a
2G	2B-y	4d	4g
.	.	4c	4f
2A	2B-y	4d	2b-y
.	.	4e	.
=24	=24	=24	=24
2F	4c	2f	2a
.	4B-y	.	.
2E	4A	2c	1g
.	4G	.	.
1D	1A	1d	.
.	.	.	2f#i
=25	=25	=25	=25
0Gl	0Gl	0dl	0gl
=26||	=26||	=26||	=26||
*M2/1	*M2/1	*M2/1	*M2/1
*met(C|)	*met(C|)	*met(C|)	*met(C|)
!!section: Agnus Dei II
!!!OMD: Agnus Dei II
0r	0r	0g	0r
=27	=27	=27	=27
0r	0r	1g	0r
.	.	2f	.
.	.	[2g	.
=28	=28	=28	=28
0r	0r	2g]	0dd
.	.	4f	.
.	.	4e	.
.	.	2f	.
.	.	2g	.
=29	=29	=29	=29
0r	0r	1d	1dd
.	.	[1f	2cc
.	.	.	[2dd
=30	=30	=30	=30
0r	0r	2f]	2dd]
.	.	4e	4cc
.	.	4d	4b-y
.	.	2e	2cc
.	.	[2d	2dd
=31	=31	=31	=31
0r	0r	4d]	1a
.	.	4e	.
.	.	4f	.
.	.	4g	.
.	.	4a	[1cc
.	.	4b-y	.
.	.	[2a	.
=32	=32	=32	=32
0r	0r	2a]	2cc]
.	.	4g	4b-y
.	.	4f	4a
.	.	2g	2b-y
.	.	[2f	2a
=33	=33	=33	=33
0r	0r	2f]	2.cc
.	.	4e	.
.	.	4d	4dd
.	.	2c	2ee
.	.	2d	[2ff
=34	=34	=34	=34
0r	0r	2.f	2ff]
.	.	.	4ee
.	.	4g	4dd
.	.	4a	2cc
.	.	4g	.
.	.	2a	[2ee
=35	=35	=35	=35
0r	0r	4g	2ee]
.	.	4f	.
.	.	4e	1dd
.	.	4d	.
.	.	1e	.
.	.	.	2cc#i
=36	=36	=36	=36
0r	0r	1d	[0dd
.	.	2r	.
.	.	2d	.
=37	=37	=37	=37
0r	0r	2f	0dd]
.	.	2f	.
.	.	2.g	.
.	.	4a	.
=38	=38	=38	=38
0r	0r	2.b-y	2r
.	.	.	2g
.	.	4a	.
.	.	4g	2b-y
.	.	4f	.
.	.	[2g	2b-y
=39	=39	=39	=39
0r	0r	4g]	2cc
.	.	4e	.
.	.	2f	4dd
.	.	.	2ee-i
.	.	2.g	.
.	.	.	[2.dd
.	.	8fL	.
.	.	8eJ	.
=40	=40	=40	=40
0r	0r	2d	4dd]
.	.	.	4cc
.	.	2.g	4b-y
.	.	.	4a
.	.	.	2b-y
.	.	4f	.
.	.	4e	[2cc
.	.	4d	.
=41	=41	=41	=41
0r	0r	1c	4cc]
.	.	.	4b-y
.	.	.	4a
.	.	.	4g
.	.	2r	1a
.	.	2f	.
=42	=42	=42	=42
0r	0r	2g	2r
.	.	2.b-y	2g
.	.	.	2.b-y
.	.	4a	.
.	.	[2g	.
.	.	.	4cc
=43	=43	=43	=43
0r	0r	2g]	4dd
.	.	.	4ee
.	.	4f	1ff
.	.	4e	.
.	.	4d	.
.	.	4e	.
.	.	4f	4ee
.	.	4g	4dd
=44	=44	=44	=44
0r	0r	2a	2cc
.	.	2.b-y	2dd
.	.	.	2g
.	.	4a	.
.	.	4g	[2dd
.	.	4f	.
=45	=45	=45	=45
0r	0r	2g	4dd]
.	.	.	4cc
.	.	1a	4b-y
.	.	.	4a
.	.	.	1b-y
.	.	2g	.
=46	=46	=46	=46
0r	0r	1a	[0a
.	.	2r	.
.	.	2d	.
=47	=47	=47	=47
0r	0r	2d	1a]
.	.	2c	.
.	.	4d	2r
.	.	4e	.
.	.	4f	2dd
.	.	4d	.
=48	=48	=48	=48
0r	0r	2e	2dd
.	.	2.f	2cc
.	.	.	4dd
.	.	4e	4ee
.	.	2d	4ff
.	.	.	4dd
=49	=49	=49	=49
0r	0r	2c	2ee
.	.	2.d	2.ff
.	.	4e	4ee
.	.	4f	2dd
.	.	4g	.
=50	=50	=50	=50
0r	0r	2a	2cc
.	.	1b-y	2.dd
.	.	.	4cc
.	.	4a	2b-y
.	.	4g	.
=51	=51	=51	=51
0r	0r	2f	2a
.	.	1g	2g
.	.	.	1a
.	.	2f#i	.
=52	=52	=52	=52
0r	0r	1g	0g
.	.	2r	.
.	.	2g	.
=53	=53	=53	=53
0r	0r	2g	2r
.	.	2f	2dd
.	.	2g	2dd
.	.	2a	2cc
=54	=54	=54	=54
0r	0r	2.b-y	4dd
.	.	.	4ee
.	.	.	4ff
.	.	4a	4dd
.	.	2g	2ee
.	.	2f	[2ff
=55	=55	=55	=55
0r	0r	1b-y	4ff]
.	.	.	4ee
.	.	.	1dd
.	.	1a	.
.	.	.	2cc
=56	=56	=56	=56
0r	0r	2r	1dd
.	.	2d	.
.	.	2d	1a
.	.	2c	.
=57	=57	=57	=57
0r	0r	4d	2r
.	.	4e	.
.	.	4f	2a
.	.	4d	.
.	.	1e	2a
.	.	.	2g
=58	=58	=58	=58
0r	0r	2d	4a
.	.	.	4b-y
.	.	2c	4cc
.	.	.	4a
.	.	2.d	2b-y
.	.	.	[2a
.	.	4c	.
=59	=59	=59	=59
0r	0r	2B-y	2a]
.	.	4A	1g
.	.	4G	.
.	.	1A	.
.	.	.	2f#i
=60	=60	=60	=60
0r	0r	0Gl	0gl
==	==	==	==
*-	*-	*-	*-
!!!system-decoration: s1,s2,s3,s4
!!!RDF**kern: i = editorial accidental
!!!RDF**kern: l = terminal long
!!!ENC: David Nivarlet
!!!END: 2025/11/26
!!!EED: Benjamin Ory
!!!EEV: 2026/01/28
!!!YEC: Copyright 2026 Benjamin Ory, All Rights Reserved
!!!ONB: Translated from MusicXML on 2026/01/28
